packages/core/src/svgs/tokens/mono/TRIAS.svg

<svg width="24" height="24" viewBox="0 0 24 24" fill="none" xmlns="http://www.w3.org/2000/svg">
<mask id="mask0_364_19947" style="mask-type:luminance" maskUnits="userSpaceOnUse" x="2" y="2" width="20" height="20">
<path d="M22 2H2V22H22V2Z" fill="white"/>
</mask>
<g mask="url(#mask0_364_19947)">
<mask id="mask1_364_19947" style="mask-type:luminance" maskUnits="userSpaceOnUse" x="2" y="2" width="20" height="20">
<path d="M2 2H22V22H2V2Z" fill="white"/>
</mask>
<g mask="url(#mask1_364_19947)">
<path fill-rule="evenodd" clip-rule="evenodd" d="M12.5287 6.33978C12.4758 6.29954 12.4098 6.28063 12.3437 6.28679C12.2775 6.29294 12.2161 6.3237 12.1716 6.37299L6.34085 13.1152C6.31966 13.1393 6.30397 13.1677 6.29483 13.1986C6.2857 13.2293 6.28334 13.2617 6.28792 13.2936C6.2925 13.3253 6.30391 13.3557 6.32137 13.3827C6.33883 13.4097 6.36192 13.4326 6.38906 13.4497L12.6412 17.6697C12.7369 17.7341 12.8683 17.7283 12.9566 17.6555L16.9158 14.3769C16.9503 14.3494 16.9759 14.3122 16.9893 14.2701C17.0027 14.228 17.0032 14.1829 16.9908 14.1405L15.2873 8.47193L12.5287 6.33978ZM6.84656 13.1519L12.9702 13.7066L13.4112 9.73049L12.248 6.90621L6.84656 13.1519ZM12.9273 14.093L7.29906 13.5833L12.588 17.153L12.9273 14.093ZM13.3444 14.1308L16.2644 14.3952L13.0169 17.0844L13.3444 14.1308ZM16.5216 14.028L13.3873 13.7441L13.8158 9.88085L14.9812 8.90193L16.5216 14.028ZM14.7555 8.56728L13.7341 9.42514L12.7383 7.00799L14.7555 8.56728Z" fill="white"/>
</g>
</g>
</svg>

<svg xmlns="http://www.w3.org/2000/svg" width="24" height="24" fill="none" viewBox="0 0 24 24">
    <mask id="TRIAS__a" width="20" height="20" x="2" y="2" maskUnits="userSpaceOnUse" style="mask-type:luminance">
        <path fill="#fff" d="M22 2H2v20h20z"/>
    </mask>
    <g mask="url(#TRIAS__a)">
        <mask id="TRIAS__b" width="20" height="20" x="2" y="2" maskUnits="userSpaceOnUse" style="mask-type:luminance">
            <path fill="#fff" d="M2 2h20v20H2z"/>
        </mask>
        <g mask="url(#TRIAS__b)">
            <path fill="#fff" fill-rule="evenodd" d="M12.529 6.34a.265.265 0 0 0-.357.033L6.34 13.115a.22.22 0 0 0 .048.335l6.252 4.22a.27.27 0 0 0 .316-.015l3.959-3.278a.22.22 0 0 0 .075-.237l-1.704-5.668zm-5.682 6.812 6.123.555.441-3.977-1.163-2.824zm6.08.941-5.628-.51 5.289 3.57zm.417.038 2.92.264-3.247 2.69zm3.178-.103-3.135-.284.429-3.863 1.165-.98zm-1.766-5.46-1.022.857-.996-2.417z" clip-rule="evenodd"/>
        </g>
    </g>
</svg>
